X:134
T:Vens, enfant dou Segnour
R:Nol
C:Trad.
C:Paraulo de Micoulau Saboly
C:
O:France
A:Provence
N:Intro, unisson, Instrumental,  4 voix
Z:Transcrit et/ou corrig par Michel BELLON - 2005-07-26
Z:Pour toute observation mailto:galouvielle@free.fr
M:3/4
L:1/8
Q:1/4=96
K:Bb
(B2 | d2 de dc | B2 Bc de | f2 ed cB | d2 c2) (B2 | d2 de dc |
B2 Bc de | f2 ed ce | d4) (f2 |d2 de dc | B2 F2 B2 | c2 cd Bc | 
d2 !breath!c2) (f2 | d2 de dc | B2 Bc de | f2 ee dc | HB4) |]
%%footer $D   Galouvielle-MBe 2008 \nOne-step (France)
